X: 103
T: Cotillon Francoise
%R: march
B: Stewart "A Select Collection of Airs, Jigs, Marches and Reels", ca.1784, p.50 #103
F: http://imslp.org/wiki/A_Select_Collection_of_Airs,_Jigs,_Marches_and_Reels_%28Various%29
Z: 2017 John Chambers <jc:trillian.mit.edu>
M: 2/4
L: 1/8
K: Am
|:\
ce/d/ cB | Aa^ga | edcB | cB/c/ AE |\
ce/d/ cB | Aa^ga | edcd | e2 e2 :|
|:\
cc/d/ ef | gf/e/ dc | BB/c/ de | fe/d/ cB |\
Aa^ga | Aa^ga | fe/d/ cB | A2 A2 :|
